X:1
T:Title
%%score { ( 1 3 ) | ( 2 4 ) }
L:1/8
Q:1/4=104
M:4/4
K:Bb
V:1 treble nm="Grand Piano"
V:3 treble 
V:2 bass 
V:4 bass 
V:1
 [DF]2 [DF]2 [DG]2 [DG]2 | [F,DF]2 A>B d2- [Fd]2 | e2 =B2 d2 c2 | [B,=EB]2 [B,EA]2 [_Ec]4 | %4
w: I.~H.~Meredith * * *||||
 [F,DF]2 [F,DF]2 [DG]2 [DG]2 | [F,DF]2 A>B d2- [Fd]2 | [Fc]2 [Fd]2 [Fc]2 [FA]2 | %7
w: |||
 c>B [B,=EA]2 [A,F]4 | e2- [A,EGe]2 e2- [Ece]2 | z2 B2 [Fd]4 | c4 c4 | z4 [Bd]4 | %12
w: |||||
 [Ge]2 [Ge]2 [GB]2 [^Fc]2 | [Fd]>[Ge] [^Fd]>[Ac] B4 | c2 c2 c2 [FA]2 | %15
w: |||
 [DG]>[DB] [CA]>[B,=EG] [A,F]4 | e4 e4 | z2 d2 [Fd]4 | c4 c4 | z4 [Bd]4 | %20
w: |||||
 [Ge]2 [Ge]2 [GB]2 [^Fc]2 | [Fd]>[=E_d] =d>e f2 F>F | B2 F2 d2 B2 | f4 A4 | [DB]6 z2 |] %25
w: |||||
V:2
 [B,,F,]2 [F,,F,]2 [B,,F,]2 [F,,F,]2 | z z/ G/ [F,,F,]2 [B,,F,]2 [D,B,]2 | %2
 [F,A,F]2 [F,_A,D]2 [F,=A,E]2 [F,A,E]2 | z z/ G/ z z/[K:treble] B/[K:bass] [F,A,]2 F,,2 | %4
 B,,2 F,,2 [B,,F,]2 [F,,F,]2 | z z/ G/ [F,,F,]2 [B,,F,]2 [D,B,]2 | %6
 [C,A,]2 [=B,,_A,]2 [C,=A,]2 [D,A,]2 | [G,B,D]2 z z/ G/ F,4 | F,,2 F,2 F,,2 [F,A,]2 | %9
 z z/[K:treble] c/[K:bass] [F,B,D]2 [F,B,D]2 F,2 | D,,2 D,2 D,,2 [D,^F,]2 | %11
 z z/[K:treble] F/ G>A [G,B,D]2 [G,B,]2 | [E,B,]2 [E,B,]2 [E,B,]2 [E,B,]2 | %13
 [B,,B,]>[B,,B,] [D,A,]>[D,D][K:treble] [G,DG]4 | [A,CF]2[K:bass] [G,B,=E]2 [F,A,F]2 [D,A,]2 | %15
 [B,,B,]>[B,,G,] [C,F,]>C, F,4 | F,,2 F,2 F,,2 [F,A,]2 | %17
 z z/[K:treble] c/[K:bass] [F,B,D]2 [F,B,D]2 F,2 | D,,2 D,2 D,,2 [D,^F,]2 | %19
 z z/[K:treble] ^F/ G>A [G,B,D]2 [G,B,]2 | [E,B,]2 [E,B,]2 [E,B,]2 [E,B,]2 | %21
 [B,,B,]>[B,,B,][K:treble] [B,F]>[B,CF] [B,DF]2[K:bass] F,>F, | B,2 F,2 D2 B,2 | %23
 [F,C]2 [F,C]2 [F,CE]2 [F,C]2 | [B,,B,]6 z2 |] %25
V:3
 x8 | z2 D2 D2 z2 | x8 | x8 | x8 | z2 D2 D2 z2 | x8 | x8 | F2 z2 A2 z2 | [Bd]2 d->[Gd] z2 [B,D]2 | %10
 D2 [^F,C=E]2 ^F2 [CA]2 | [GB]>A B>c z2 D2 | x8 | x8 | x8 | x8 | F2 [A,EG]2 A2 [Ec]2 | %17
 [Bd]2 B>G z2 [B,D]2 | D2 [^F,C=E]2 ^F2 [CA]2 | [GB]>A B>c z2 D2 | x8 | x8 | x8 | A2 A2 z2 E2 | %24
 x8 |] %25
V:4
 x8 | B,,2 z2 z4 | x8 | C,2 C,2[K:treble][K:bass] z4 | x8 | B,,2 z2 z4 | x8 | z2 C,2 z4 | x8 | %9
 B,,2[K:treble][K:bass] z2 z4 | x8 | G,,2[K:treble] [G,B,D]2 z4 | x8 | x4[K:treble] x4 | %14
 x2[K:bass] x6 | x8 | x8 | B,,2[K:treble][K:bass] z2 z4 | x8 | G,,2[K:treble] [G,B,D]2 z4 | x8 | %21
 x2[K:treble] x4[K:bass] x2 | x8 | x8 | x8 |] %25

